X:7933
T:Jennys Bawbee. JC.011
M:2/4
L:1/8
Q:240
S:John Clare,Poet,Helpston. (1793-1864)
R:Reel
O:England
A:Northamptonshire
N:
Z:P Headford
K:D
f/g/|abag|fd de/f/|gBe>d|cA Af/g/|abag|fdfa|
B2c2|d3:|!
|:d/e/|fdge|fd de/f/|gBe>d|cA Ad/e/|fdge|
fdfa|B2c2|d2Z:|]
W:Song text exists. See Deacon.


